X: 1
T: Kiely Cotters
M: 12/8
L: 1/8
R: slide
K: Dmaj
A|:d2ag2e fed B2A|dcd agf e3e2A|
d2ag2e fed B2A|1dcd efe d3 d2A:|2dcd efe d3 dcd||
|:e3efga3agf|e3efed2BB2d|
e3efga3agf|1efe dcB A3 dcd:|2efe dcB A3 A3||
